!!!!SEGMENT: pl-wtm--r-1000-1_krogulski-jozef-wladyslaw--boze-wszechmocny.krn
!!!cenid: 18xx:2104
!!!COM: Krogulski, Józef Władysław
!!!COM-rism: pe30001797
!!!CDT: 1815/10/04-1842/01/09
!!!CNT: Polish
!!!OTL: Boże Wszechmocny
!!!PDT:
!!!AGN: Sacred
!!!SMS-siglum: PL-Wtm
!!!SMS-shelfmark: R 1000/1
!!!NIFC-rismID: 1001083798
!!!URL-scan: http://repozytorium.nifc.pl/skany/pl-wtm-nut--r1000
!!!ONB-nifc: UWAGA: folder pl-wtm-r1000-1
!!!SMS-variant:
!!!SMS-altvar:
**kern	**kern	**kern	**text	**dynam	**kern	**text	**dynam	**kern	**text	**dynam	**kern	**text	**dynam
*group2	*group2	*group1	*	*	*group1	*	*	*group1	*	*	*group1	*	*
*part5	*part5	*part4	*part4	*part4	*part3	*part3	*part3	*part2	*part2	*part2	*part1	*part1	*part1
*staff6	*staff5	*staff4	*staff4	*	*staff3	*staff3	*	*staff2	*staff2	*	*staff1	*staff1	*
*	*	*I""	*	*	*	*	*	*	*	*	*	*	*
*I"Organ	*	*I"Bas.	*	*	*I"Tenor.	*	*	*I"Kontr-Alt.	*	*	*I"Sopran	*	*
*clefF4	*clefG2	*clefF4	*	*	*clefG2	*	*	*clefG2	*	*	*clefG2	*	*
*k[b-e-a-]	*k[b-e-a-]	*k[b-e-a-]	*	*	*k[b-e-a-]	*	*	*k[b-e-a-]	*	*	*k[b-e-a-]	*	*
*	*	*	*	*	*ITrd7c12	*	*	*	*	*	*	*	*
*M4/4	*M4/4	*M4/4	*	*	*M4/4	*	*	*M4/4	*	*	*M4/4	*	*
*met(c)	*met(c)	*met(c)	*	*	*met(c)	*	*	*met(c)	*	*	*met(c)	*	*
=1	=1	=1	=1	=1	=1	=1	=1	=1	=1	=1	=1	=1	=1
!	!	!LO:TX:t=P:problem:partia zazwyczaj ukryta, gdy ma tacet	!	!	!LO:TX:t=P:problem:partia zazwyczaj ukryta, gdy ma tacet	!	!	!LO:TX:t=P:problem:partia zazwyczaj ukryta, gdy ma tacet	!	!	!LO:TX:t=P:problem:partia zazwyczaj ukryta, gdy ma tacet	!	!
!	!	!	!	!	!	!	!	!	!	!	!LO:TX:t=Allo moderato.	!	!
!	!	!	!	!	!	!	!	!	!	!LO:DY:b	!	!	!
2C\	8r<	1r	.	.	1r	.	.	2c/	Bo-	p	1r	.	.
.	(8E-</L	.	.	.	.	.	.	.	.	.	.	.	.
.	8G</	.	.	.	.	.	.	.	.	.	.	.	.
.	8c</J)	.	.	.	.	.	.	.	.	.	.	.	.
2GG\	8r<	.	.	.	.	.	.	4d/	-że	.	.	.	.
.	(8F</L	.	.	.	.	.	.	.	.	.	.	.	.
.	8G</	.	.	.	.	.	.	4Bn/	Wszech-	.	.	.	.
.	8d</J)	.	.	.	.	.	.	.	.	.	.	.	.
=2	=2	=2	=2	=2	=2	=2	=2	=2	=2	=2	=2	=2	=2
1C	8r<	1r	.	.	1r	.	.	(4.c/	-mo-	.	1r	.	.
.	(8E-</L	.	.	.	.	.	.	.	.	.	.	.	.
.	8G</	.	.	.	.	.	.	.	.	.	.	.	.
.	8c</J	.	.	.	.	.	.	8d/)	.	.	.	.	.
.	8e-</L	.	.	.	.	.	.	8e-/	-cny	.	.	.	.
.	8c/	.	.	.	.	.	.	8r	.	.	.	.	.
.	8G</	.	.	.	.	.	.	4e-/	co	.	.	.	.
.	8E-</J)	.	.	.	.	.	.	.	.	.	.	.	.
=3	=3	=3	=3	=3	=3	=3	=3	=3	=3	=3	=3	=3	=3
1CC	8r<	1r	.	.	1r	.	.	2a-/	je-	>	1r	.	.
.	(8A-</L	.	.	.	.	.	.	.	.	.	.	.	.
.	8c</	.	.	.	.	.	.	.	.	.	.	.	.
.	8f</J)	.	.	.	.	.	.	.	.	.	.	.	.
.	(8G</L	.	.	.	.	.	.	4g/	-dnem	]	.	.	.
.	8e-</	.	.	.	.	.	.	.	.	.	.	.	.
.	8F#<X/	.	.	.	.	.	.	4f#X/	ski-	.	.	.	.
.	8d</J)	.	.	.	.	.	.	.	.	.	.	.	.
=4	=4	=4	=4	=4	=4	=4	=4	=4	=4	=4	=4	=4	=4
1C	8r<	1r	.	.	1r	.	.	(4.g/	-nie-	.	1r	.	.
.	(8E-</L	.	.	.	.	.	.	.	.	.	.	.	.
.	8G</	.	.	.	.	.	.	.	.	.	.	.	.
.	8c</J	.	.	.	.	.	.	8e-/)	.	.	.	.	.
.	8e-</L	.	.	.	.	.	.	4c/	-niem	.	.	.	.
.	8c</	.	.	.	.	.	.	.	.	.	.	.	.
.	8G</	.	.	.	.	.	.	4r	.	.	.	.	.
.	8E-</J)	.	.	.	.	.	.	.	.	.	.	.	.
=5	=5	=5	=5	=5	=5	=5	=5	=5	=5	=5	=5	=5	=5
1C	8r<	1r	.	.	1r	.	.	2cc\	wła-	f	1r	.	.
.	(8E-</L	.	.	.	.	.	.	.	.	.	.	.	.
.	8G</	.	.	.	.	.	.	.	.	.	.	.	.
.	8c</J	.	.	.	.	.	.	.	.	.	.	.	.
.	8e-</L	.	.	.	.	.	.	4c/	-dasz	.	.	.	.
.	8c</	.	.	.	.	.	.	.	.	.	.	.	.
.	8G</	.	.	.	.	.	.	4c/	na-	.	.	.	.
.	8E-</J)	.	.	.	.	.	.	.	.	.	.	.	.
!!LO:LB:g=original
=6	=6	=6	=6	=6	=6	=6	=6	=6	=6	=6	=6	=6	=6
!	!	!	!	!	!	!	!	!LO:TX:a:t=Kontr. Alt Solo.	!	!	!	!	!
1BB-	8r<	1ryy	.	.	1ryy	.	.	2.e-/	-tu-	.	1ryy	.	.
.	(8E-</L	.	.	.	.	.	.	.	.	.	.	.	.
.	8G</	.	.	.	.	.	.	.	.	.	.	.	.
.	8c</J	.	.	.	.	.	.	.	.	.	.	.	.
.	8e-</L	.	.	.	.	.	.	.	.	.	.	.	.
.	8c</	.	.	.	.	.	.	.	.	.	.	.	.
.	8G</	.	.	.	.	.	.	4d/	-rą	.	.	.	.
.	8E-</J)	.	.	.	.	.	.	.	.	.	.	.	.
=7	=7	=7	=7	=7	=7	=7	=7	=7	=7	=7	=7	=7	=7
1AA-	8r<	1ryy	.	.	1ryy	.	.	4.c/	rzą-	.	1ryy	.	.
.	(8E-</L	.	.	.	.	.	.	.	.	.	.	.	.
.	8F#<X/	.	.	.	.	.	.	.	.	.	.	.	.
.	8c</J	.	.	.	.	.	.	8d/	-disz	.	.	.	.
.	8e-</L	.	.	.	.	.	.	8f/L	przy-	.	.	.	.
.	8c</	.	.	.	.	.	.	8e-/J	.	.	.	.	.
.	8F#</)	.	.	.	.	.	.	8d/L	-ro-	.	.	.	.
.	8E-</J	.	.	.	.	.	.	8c/J	.	.	.	.	.
=8	=8	=8	=8	=8	=8	=8	=8	=8	=8	=8	=8	=8	=8
[2GG\	8r<	1ryy	.	.	1ryy	.	.	2g/	-dze-	.	1ryy	.	.
.	(8E-</L	.	.	.	.	.	.	.	.	.	.	.	.
.	8G</	.	.	.	.	.	.	.	.	.	.	.	.
.	8c</J)	.	.	.	.	.	.	.	.	.	.	.	.
8GG\L]	4G</ 4Bn<	.	.	.	.	.	.	8G/	-niem	.	.	.	.
8FF\	.	.	.	.	.	.	.	8r	.	.	.	.	.
!	!	!	!	!	!	!	!	!	!	!LO:DY:a	!	!	!
8EE-\	4r<	.	.	.	.	.	.	4G/	do	p	.	.	.
8DD\J	.	.	.	.	.	.	.	.	.	.	.	.	.
=9	=9	=9	=9	=9	=9	=9	=9	=9	=9	=9	=9	=9	=9
2CC\	8r<	1ryy	.	.	1ryy	.	.	(2c/	cie-	.	1ryy	.	.
.	(8E-</L	.	.	.	.	.	.	.	.	.	.	.	.
.	8G</	.	.	.	.	.	.	.	.	.	.	.	.
.	8c</J)	.	.	.	.	.	.	.	.	.	.	.	.
2GG\	8r<	.	.	.	.	.	.	4d/)	.	.	.	.	.
.	(8F</L	.	.	.	.	.	.	.	.	.	.	.	.
.	8G</	.	.	.	.	.	.	4Bn/	-bie	.	.	.	.
.	8d</J)	.	.	.	.	.	.	.	.	.	.	.	.
=10	=10	=10	=10	=10	=10	=10	=10	=10	=10	=10	=10	=10	=10
1C	8r<	1ryy	.	.	1ryy	.	.	(4.c/	lu-	.	1ryy	.	.
.	(8E-</L	.	.	.	.	.	.	.	.	.	.	.	.
.	8G</	.	.	.	.	.	.	.	.	.	.	.	.
.	8c</J	.	.	.	.	.	.	8d/)	.	.	.	.	.
.	8e-</L	.	.	.	.	.	.	4e-/	-dzie	.	.	.	.
.	8c</	.	.	.	.	.	.	.	.	.	.	.	.
.	8G</	.	.	.	.	.	.	4r	.	.	.	.	.
.	8E-</J)	.	.	.	.	.	.	.	.	.	.	.	.
!!LO:LB:g=original
=11	=11	=11	=11	=11	=11	=11	=11	=11	=11	=11	=11	=11	=11
!	!	!	!	!	!	!	!	!LO:TX:a:t=Kontr- Alt solo	!	!LO:DY:a	!	!	!
1C	8r<	1ryy	.	.	1ryy	.	.	4.a-/	Kor-	<	1ryy	.	.
.	(8F</L	.	.	.	.	.	.	.	.	.	.	.	.
.	8A-</	.	.	.	.	.	.	.	.	.	.	.	.
.	8c</J	.	.	.	.	.	.	8g/	-ne	.	.	.	.
.	8f</L	.	.	.	.	.	.	4a-/	wzno-	.	.	.	.
.	8c</	.	.	.	.	.	.	.	.	.	.	.	.
.	8A-</	.	.	.	.	.	.	8b-/L	-szą	.	.	.	.
.	8F</J)	.	.	.	.	.	.	8cc/J	.	[[	.	.	.
=12	=12	=12	=12	=12	=12	=12	=12	=12	=12	=12	=12	=12	=12
!	!	!	!	!	!	!	!	!	!	!LO:DY:a	!	!	!
2CC\	8r<	1ryy	.	.	1ryy	.	.	2cc\	pie-	>	1ryy	.	.
.	(8A-</L	.	.	.	.	.	.	.	.	.	.	.	.
.	8c</	.	.	.	.	.	.	.	.	.	.	.	.
.	8f</J)	.	.	.	.	.	.	.	.	.	.	.	.
2C\	8r<	.	.	.	.	.	.	4g/	-nia	]	.	.	.
.	(8G</L	.	.	.	.	.	.	.	.	.	.	.	.
.	8c</	.	.	.	.	.	.	4r	.	.	.	.	.
.	8e-</J)	.	.	.	.	.	.	.	.	.	.	.	.
=13	=13	=13	=13	=13	=13	=13	=13	=13	=13	=13	=13	=13	=13
!	!	!	!	!	!	!	!	!	!	!LO:DY:b	!	!	!
2D\	8r	1ryy	.	.	1ryy	.	.	2b-/	Rzuć	f	1ryy	.	.
.	(8B-/L	.	.	.	.	.	.	.	.	.	.	.	.
.	8f/	.	.	.	.	.	.	.	.	.	.	.	.
.	8a-/J)	.	.	.	.	.	.	.	.	.	.	.	.
2E-\	8r	.	.	.	.	.	.	8a-/L	o-	.	.	.	.
.	(8B-/L	.	.	.	.	.	.	8g/J	.	.	.	.	.
.	8e-/	.	.	.	.	.	.	8f/L	-kiem	.	.	.	.
.	8g/J)	.	.	.	.	.	.	8e-/J	.	.	.	.	.
=14	=14	=14	=14	=14	=14	=14	=14	=14	=14	=14	=14	=14	=14
1AA- 1A-	8r	1ryy	.	.	1ryy	.	.	2cc\	ła-	.	1ryy	.	.
.	(8c/L	.	.	.	.	.	.	.	.	.	.	.	.
.	8e-/	.	.	.	.	.	.	.	.	.	.	.	.
.	8a-/J	.	.	.	.	.	.	.	.	.	.	.	.
.	8cc/L	.	.	.	.	.	.	4A-/	-ski	.	.	.	.
.	8a-/	.	.	.	.	.	.	.	.	.	.	.	.
.	8e-/	.	.	.	.	.	.	4A-/	na	.	.	.	.
.	8c/J)	.	.	.	.	.	.	.	.	.	.	.	.
=15	=15	=15	=15	=15	=15	=15	=15	=15	=15	=15	=15	=15	=15
2BB-/	8r	1ryy	.	.	1ryy	.	.	(4.B-/	swo-	.	1ryy	.	.
.	(8B-/L	.	.	.	.	.	.	.	.	.	.	.	.
.	8e-/	.	.	.	.	.	.	.	.	.	.	.	.
.	8g/J)	.	.	.	.	.	.	16c/LL	.	.	.	.	.
.	.	.	.	.	.	.	.	16B-/JJ)	.	.	.	.	.
!LO:TX:b:t=VS.	!	!	!	!	!	!	!	!	!	!	!	!	!
2BB-/	8r	.	.	.	.	.	.	8An/L	-je	.	.	.	.
.	(8A-/L	.	.	.	.	.	.	8B-/J	.	.	.	.	.
.	8d/	.	.	.	.	.	.	8g/L	stwo-	.	.	.	.
.	8f/J)	.	.	.	.	.	.	8f/J	.	.	.	.	.
!!LO:PB:g=original
=16	=16	=16	=16	=16	=16	=16	=16	=16	=16	=16	=16	=16	=16
!	!	!	!	!	!	!	!	!LO:TX:a:t=Kontr. Alto Solo	!	!	!LO:TX:a:t=Soprano Solo.	!	!
1E-	8r	1ryy	.	.	1ryy	.	.	4f/	-rze-	.	1ryy	.	.
.	(8G/L	.	.	.	.	.	.	.	.	.	.	.	.
.	8B-/	.	.	.	.	.	.	4e-/	-nia	.	.	.	.
.	8e-/J	.	.	.	.	.	.	.	.	.	.	.	.
.	8g/L	.	.	.	.	.	.	2r	.	.	.	.	.
.	8e-/	.	.	.	.	.	.	.	.	.	.	.	.
.	8B-/	.	.	.	.	.	.	.	.	.	.	.	.
.	8G/J)	.	.	.	.	.	.	.	.	.	.	.	.
=17	=17	=17	=17	=17	=17	=17	=17	=17	=17	=17	=17	=17	=17
!	!	!	!	!	!	!	!	!	!	!LO:DY:a	!	!	!
1EE- 1E-	8r	1ryy	.	.	1ryy	.	.	2a-/	wszak-	>	4r	.	p
.	(8B-/L	.	.	.	.	.	.	.	.	.	.	.	.
!	!	!	!	!	!	!	!	!	!	!	!LO:TX:a:t=dolce	!	!LO:DY:a
.	8f/	.	.	.	.	.	.	.	.	.	4b-\	wszak-	<
.	8a-/J	.	.	.	.	.	.	.	.	.	.	.	.
.	8e-/L	.	.	.	.	.	.	4g/	-żeś	.	4cc\	-żeś	.
.	8g/	.	.	.	.	.	.	.	.	.	.	.	.
.	8d/	.	.	.	.	.	.	4f/	ich	]	4dd\	ich	[[
.	8f/J)	.	.	.	.	.	.	.	.	.	.	.	.
=18	=18	=18	=18	=18	=18	=18	=18	=18	=18	=18	=18	=18	=18
!	!	!	!	!	!	!	!	!	!	!	!	!	!LO:DY:a
[1EE- [1E-	8r	1ryy	.	.	1ryy	.	.	2e-/	stwo-	p	(4.ee-\	stwo-	>
.	(8B-/L	.	.	.	.	.	.	.	.	.	.	.	.
.	8e-/	.	.	.	.	.	.	.	.	.	.	.	.
.	8g/J	.	.	.	.	.	.	.	.	.	8dd\	.	.
.	8b-/L	.	.	.	.	.	.	2G/	-rzył	.	8cc\L	.	.
.	8g/	.	.	.	.	.	.	.	.	.	8b-\J)	.	.
.	8e-/	.	.	.	.	.	.	.	.	.	8a-/L	-rzył	]
.	8B-/J)	.	.	.	.	.	.	.	.	.	8g/J	.	.
=19	=19	=19	=19	=19	=19	=19	=19	=19	=19	=19	=19	=19	=19
1EE-_ 1E-_	(8d/L	1ryy	.	.	1ryy	.	.	4A-/	dla	.	8f/L	dla	.
.	8c/	.	.	.	.	.	.	.	.	.	8g/J	.	.
.	8B-/	.	.	.	.	.	.	8f/L	Twéj	.	8a-/L	Twéj	.
.	8c/J	.	.	.	.	.	.	8e-/J	.	.	8an/J	.	.
.	8d/L	.	.	.	.	.	.	8d/L	świę-	.	8b-/L	świę-	.
.	8e-/	.	.	.	.	.	.	8c/J	.	.	8e-/J	.	.
.	8f/	.	.	.	.	.	.	8B-/L	-téj	.	8d/L	-téj	.
.	8d/J)	.	.	.	.	.	.	8A-/J	.	.	8f/J	.	.
=20	=20	=20	=20	=20	=20	=20	=20	=20	=20	=20	=20	=20	=20
1EE-] 1E-]	(8e-/L	1ryy	.	.	1ryy	.	.	4G/	chwa-	.	4e-/	chwa-	.
.	8g/	.	.	.	.	.	.	.	.	.	.	.	.
.	8b-/	.	.	.	.	.	.	4B-/	-ły	.	4g/	-ły	.
.	8g/J	.	.	.	.	.	.	.	.	.	.	.	.
.	8e-/L	.	.	.	.	.	.	2r	.	.	2r	.	.
.	8B-/	.	.	.	.	.	.	.	.	.	.	.	.
.	8G/	.	.	.	.	.	.	.	.	.	.	.	.
.	8B-/J)	.	.	.	.	.	.	.	.	.	.	.	.
=21	=21	=21	=21	=21	=21	=21	=21	=21	=21	=21	=21	=21	=21
!	!	!	!	!	!	!	!	!	!	!LO:DY:a	!	!	!
1EE- 1E-	8r	1ryy	.	.	1ryy	.	.	2a-/	Bo-	>	4r	.	.
.	(8B-/L	.	.	.	.	.	.	.	.	.	.	.	.
!	!	!	!	!	!	!	!	!	!	!	!	!	!LO:DY:a
.	8f/	.	.	.	.	.	.	.	.	.	4b-\	Bo-	<
.	8a-/J	.	.	.	.	.	.	.	.	.	.	.	.
.	8e-/L	.	.	.	.	.	.	4g/	-że	.	4cc\	-że	.
.	8g/	.	.	.	.	.	.	.	.	.	.	.	.
.	8d/	.	.	.	.	.	.	4f/	li-	]]	4dd\	li-	[[
.	8f/J)	.	.	.	.	.	.	.	.	.	.	.	.
!!LO:LB:g=original
=22	=22	=22	=22	=22	=22	=22	=22	=22	=22	=22	=22	=22	=22
!	!	!	!	!	!	!	!	!LO:TX:a:t=Kontr - Alt Solo	!	!	!LO:TX:a:t=Sopran Solo	!	!
1EE- 1E-	8r	1ryy	.	.	1ryy	.	.	2e-/	-to-	.	(4ee-\	-to-	f
.	(8B-/L	.	.	.	.	.	.	.	.	.	.	.	.
.	8e-/	.	.	.	.	.	.	.	.	.	8gg\L	.	.
.	8g/J	.	.	.	.	.	.	.	.	.	8ff\J	.	.
.	8b-/L	.	.	.	.	.	.	2G/	-ści	.	8ee-\L	.	.
.	8g/	.	.	.	.	.	.	.	.	.	8dd\J)	.	.
.	8e-/	.	.	.	.	.	.	.	.	.	8cc\L	-ści	.
.	8B-/J)	.	.	.	.	.	.	.	.	.	8b-\J	.	.
=23	=23	=23	=23	=23	=23	=23	=23	=23	=23	=23	=23	=23	=23
1BB-	(8d/L	1ryy	.	.	1ryy	.	.	4A-/	do	.	8b-\L	do	.
.	8f/	.	.	.	.	.	.	.	.	.	8bn\J	.	.
.	8a-/	.	.	.	.	.	.	8f/L	Cie-	.	8dd\L	Cie-	.
.	8g/J	.	.	.	.	.	.	8e-/J	.	.	8cc\J	.	.
.	8f/L	.	.	.	.	.	.	8d/L	-bie	.	8b-X/L	-bie	.
.	8c/	.	.	.	.	.	.	8e-/J	.	.	8an/J	.	.
.	8d/	.	.	.	.	.	.	8f/L	świat	.	8a-X/L	świat	.
.	8a-/J)	.	.	.	.	.	.	8B-/J	.	.	8f/J	.	.
=24	=24	=24	=24	=24	=24	=24	=24	=24	=24	=24	=24	=24	=24
2E-\	(8g\L	1ryy	.	.	1ryy	.	.	4e-/	ca-	.	4g/	ca-	.
.	8b-\	.	.	.	.	.	.	.	.	.	.	.	.
.	8ee-\	.	.	.	.	.	.	4g/	-ły	.	4b-/	-ły	.
.	8b-\J	.	.	.	.	.	.	.	.	.	.	.	.
2r	8g\L	.	.	.	.	.	.	2r	.	.	2r	.	.
.	8e-\	.	.	.	.	.	.	.	.	.	.	.	.
.	8B-\	.	.	.	.	.	.	.	.	.	.	.	.
.	8G\J)	.	.	.	.	.	.	.	.	.	.	.	.
=25	=25	=25	=25	=25	=25	=25	=25	=25	=25	=25	=25	=25	=25
!	!	!	!	!	!	!	!	!	!	!LO:DY:b	!	!	!
2C/	8r	1ryy	.	.	1ryy	.	.	2e-/	Za	f	2cc\	Za	f
.	(8c/L	.	.	.	.	.	.	.	.	.	.	.	.
.	8e-/	.	.	.	.	.	.	.	.	.	.	.	.
.	8g/J)	.	.	.	.	.	.	.	.	.	.	.	.
2GG/	8r	.	.	.	.	.	.	4f/	swo-	.	4dd\	swo-	.
.	(8d/L	.	.	.	.	.	.	.	.	.	.	.	.
.	8f/	.	.	.	.	.	.	4d/	-je	.	4bn\	-je	.
.	8bn/J)	.	.	.	.	.	.	.	.	.	.	.	.
=26	=26	=26	=26	=26	=26	=26	=26	=26	=26	=26	=26	=26	=26
1C	8r	1ryy	.	.	1ryy	.	.	2e-/	błę-	.	2cc\	błę-	.
.	(8c/L	.	.	.	.	.	.	.	.	.	.	.	.
.	8e-/	.	.	.	.	.	.	.	.	.	.	.	.
.	8g/J	.	.	.	.	.	.	.	.	.	.	.	.
.	8cc/L	.	.	.	.	.	.	4e-/	-dy	.	4g/	-dy	.
.	8g/	.	.	.	.	.	.	.	.	.	.	.	.
.	8e-/	.	.	.	.	.	.	4r	.	.	4r	.	.
.	8c/J)	.	.	.	.	.	.	.	.	.	.	.	.
=27	=27	=27	=27	=27	=27	=27	=27	=27	=27	=27	=27	=27	=27
2C/	8r	1ryy	.	.	1ryy	.	.	4e-/	za	.	4cc\	za	.
.	(8c/L	.	.	.	.	.	.	.	.	.	.	.	.
.	8e-/	.	.	.	.	.	.	4e-/	swe	.	4cc\	swe	.
.	8g/J)	.	.	.	.	.	.	.	.	.	.	.	.
2GG/	8r	.	.	.	.	.	.	8g/L	wy-	.	8ee-\L	wy-	.
.	(8d/L	.	.	.	.	.	.	8f/J	.	.	8dd\J	.	.
.	8f/	.	.	.	.	.	.	8e-/L	-kro-	.	8cc\L	-kro-	.
.	8bn/J)	.	.	.	.	.	.	8d/J	.	.	8bn\J	.	.
!!LO:LB:g=original
=28	=28	=28	=28	=28	=28	=28	=28	=28	=28	=28	=28	=28	=28
!	!	!	!	!	!LO:TX:a:t=Tenor.	!	!	!LO:TX:t=Kontr. Alt solo	!	!	!LO:TX:a:t=Sopran Solo	!	!
1C	8r	1ryy	.	.	1r	.	.	2e-/	-cze-	.	2cc\	-cze-	.
.	(8c/L	.	.	.	.	.	.	.	.	.	.	.	.
.	8e-/	.	.	.	.	.	.	.	.	.	.	.	.
.	8g/J	.	.	.	.	.	.	.	.	.	.	.	.
.	8cc/L	.	.	.	.	.	.	8e-/	-nia	.	8g/	-nia	.
.	8g/	.	.	.	.	.	.	8r	.	.	8r	.	.
.	8e-/	.	.	.	.	.	.	4e-/	Glę-	p	4g/	Głę-	p
.	8c/J)	.	.	.	.	.	.	.	.	.	.	.	.
=29	=29	=29	=29	=29	=29	=29	=29	=29	=29	=29	=29	=29	=29
!	!	!	!	!	!	!	!	!	!	!LO:DY:a	!	!	!LO:DY:a
1CC 1C	(8e-\L	1ryy	.	.	1r	.	.	(2e-/	-bo-	<	(2cc\	-bo-	<
.	8g\	.	.	.	.	.	.	.	.	.	.	.	.
.	8cc\	.	.	.	.	.	.	.	.	.	.	.	.
.	8e-\J	.	.	.	.	.	.	.	.	.	.	.	.
.	8f\L	.	.	.	.	.	.	4f/)	.	.	4dd\)	.	.
.	8dd\	.	.	.	.	.	.	.	.	.	.	.	.
.	8g\	.	.	.	.	.	.	4g/	-kie	[[	4ee-\	-kie	[[
.	8ee-\J)	.	.	.	.	.	.	.	.	.	.	.	.
=30	=30	=30	=30	=30	=30	=30	=30	=30	=30	=30	=30	=30	=30
!	!	!	!	!	!	!	!	!	!	!LO:DY:a	!	!	!LO:DY:a
1FF 1F	(8b-\L	1ryy	.	.	1r	.	.	2b-\	z czu-	>	2gg\	z czu-	>
.	8cc#X\	.	.	.	.	.	.	.	.	.	.	.	.
.	8gg\	.	.	.	.	.	.	.	.	.	.	.	.
.	8b-\J	.	.	.	.	.	.	.	.	.	.	.	.
.	8a-\L	.	.	.	.	.	.	4a-\	-ciem	.	4ff\	-ciem	.
.	8ff\	.	.	.	.	.	.	.	.	.	.	.	.
.	8f\	.	.	.	.	.	.	4f\	wy-	]	4dd\	wy-	]
.	8dd\J)	.	.	.	.	.	.	.	.	.	.	.	.
=31	=31	=31	=31	=31	=31	=31	=31	=31	=31	=31	=31	=31	=31
!	!	!	!	!	!	!	!	!LO:TX:a:t=con duolo	!	!	!LO:TX:a:t=con duolo	!	!
1GG 1G	8r	1ryy	.	.	1r	.	.	2e-/	-da-	.	2cc\	-da-	.
.	(8e-\L	.	.	.	.	.	.	.	.	.	.	.	.
.	8g\	.	.	.	.	.	.	.	.	.	.	.	.
.	8ccn\J	.	.	.	.	.	.	.	.	.	.	.	.
.	8d\L	.	.	.	.	.	.	4d/	-je	.	4bn\	-je	.
.	8bn\	.	.	.	.	.	.	.	.	.	.	.	.
.	8e-\	.	.	.	.	.	.	4e-/	west-	.	4cc\	wes-	.
.	8cc\J)	.	.	.	.	.	.	.	.	.	.	.	.
=32	=32	=32	=32	=32	=32	=32	=32	=32	=32	=32	=32	=32	=32
2G\	8r	1ryy	.	.	1r	.	.	2g/	-chnie-	.	2ee-\	-tchnie-	.
.	(8e-\L	.	.	.	.	.	.	.	.	.	.	.	.
.	8g\	.	.	.	.	.	.	.	.	.	.	.	.
.	8cc\J)	.	.	.	.	.	.	.	.	.	.	.	.
4GG/	4d/ 4g 4bn	.	.	.	.	.	.	4G/	-nia	.	4dd\	-nia	.
4r	4r	.	.	.	.	.	.	4r	.	.	4r	.	.
=33	=33	=33	=33	=33	=33	=33	=33	=33	=33	=33	=33	=33	=33
1BB-; 1F	1d; 1a-X 1b-X	1ryy	.	.	1r;	.	.	1r;	.	.	1r;	.	.
=34	=34	=34	=34	=34	=34	=34	=34	=34	=34	=34	=34	=34	=34
!	!	!	!	!	!LO:TX:t=P:problem:partia tenoru zapisana w kluczu wiolinowym	!	!	!	!	!	!	!	!
!	!	!	!	!	!LO:TX:a:t=dolce	!	!	!	!	!	!LO:TX:a:t=dolce	!	!
!	!	!	!	!	!	!	!	!	!	!	!	!	!LO:DY:b
!	!	!	!	!	!	!	!LO:DY:b	!	!	!	!	!	!
2E-\	8r	1ryy	.	.	2E-/	Jak	p	1r	.	.	2g/	Jak	p
.	(8B-/L	.	.	.	.	.	.	.	.	.	.	.	.
.	8e-/	.	.	.	.	.	.	.	.	.	.	.	.
.	8g/J)	.	.	.	.	.	.	.	.	.	.	.	.
2BB-/	8r	.	.	.	4F/	tyl-	.	.	.	.	4a-/	tyl-	.
.	(8B-/L	.	.	.	.	.	.	.	.	.	.	.	.
.	8d/	.	.	.	4D/	-ko	.	.	.	.	4f/	-ko	.
.	8f/J)	.	.	.	.	.	.	.	.	.	.	.	.
!!LO:PB:g=original
=35	=35	=35	=35	=35	=35	=35	=35	=35	=35	=35	=35	=35	=35
!	!	!	!	!	!LO:TX:a:t=Tenor Solo	!	!	!LO:TX:a:t=Kontr-Alt solo	!	!	!LO:TX:a:t=Sopran Solo.	!	!
!	!	!	!	!	!	!	!	!	!	!LO:DY:b	!	!	!
1E-	8r	1ryy	.	.	(4.E-/	słoń-	.	4r	.	p	(4.g/	słoń-	.
.	(8G/L	.	.	.	.	.	.	.	.	.	.	.	.
.	8B-/	.	.	.	.	.	.	4B-/	Jak	.	.	.	.
.	8e-/J	.	.	.	8F/)	.	.	.	.	.	8a-/)	.	.
.	8g/L	.	.	.	8G/	-ce	.	4e-/	tyl-	.	8b-/	-ce	.
.	8e-/	.	.	.	8r	.	.	.	.	.	8r	.	.
.	8B-/	.	.	.	4G/	za-	.	4d/	-ko	.	4b-\	za-	.
.	8G/J)	.	.	.	.	.	.	.	.	.	.	.	.
=36	=36	=36	=36	=36	=36	=36	=36	=36	=36	=36	=36	=36	=36
!	!	!	!	!	!	!	!LO:DY:a	!	!	!	!	!	!LO:DY:a
[1EE- [1E-	8r	1ryy	.	.	2c\	-błyś-	>	8c/L	słoń-	.	2ee-\	-błyś-	>
.	(8c/L	.	.	.	.	.	.	8A-/J	.	.	.	.	.
.	8e-/	.	.	.	.	.	.	8B-/	-ce	.	.	.	.
.	8a-/J	.	.	.	.	.	.	8c/	za-	.	.	.	.
.	8d/L	.	.	.	4B-\	-nie	]	8d/L	-błyś-	.	4dd\	-nie	]
.	8b-/	.	.	.	.	.	.	8e-/J	.	.	.	.	.
.	8e-/	.	.	.	4An\	na	.	8f/	-nie	.	4cc\	na	.
.	8cc/J)	.	.	.	.	.	.	8f#X/	na	.	.	.	.
=37	=37	=37	=37	=37	=37	=37	=37	=37	=37	=37	=37	=37	=37
1EE-] 1E-]	(8g\L	1ryy	.	.	(4.B-/	nie-	.	2g/	nie-	.	(8b-\L	Nie-	.
.	8b-\	.	.	.	.	.	.	.	.	.	8ee-\	.	.
.	8ee-\	.	.	.	.	.	.	.	.	.	8gg\	.	.
.	8b-\J	.	.	.	8G/)	.	.	.	.	.	8ff\J	.	.
.	8g\L	.	.	.	4E-/	-bie	.	4g/	-bie	.	8ee-\L	.	.
.	8b-\	.	.	.	.	.	.	.	.	.	8dd\J)	.	.
.	8a-\	.	.	.	4r	.	.	4r	.	.	8cc\L	bie	.
.	8g\J)	.	.	.	.	.	.	.	.	.	8b-\J	.	.
=38	=38	=38	=38	=38	=38	=38	=38	=38	=38	=38	=38	=38	=38
!	!	!	!	!	!	!	!LO:DY:b	!	!	!	!	!	!
!	!	!	!	!	!	!	!	!	!	!	!	!	!LO:DY:b
1C	8r	1ryy	.	.	2e-\	Proś-	f	1r	.	.	2a-/	Proś-	f
.	(8c/L	.	.	.	.	.	.	.	.	.	.	.	.
.	8e-/	.	.	.	.	.	.	.	.	.	.	.	.
.	8a-/J	.	.	.	.	.	.	.	.	.	.	.	.
.	8cc/L	.	.	.	4E-/	-by	.	.	.	.	4a-/	-by	.
.	8a-/	.	.	.	.	.	.	.	.	.	.	.	.
.	8e-/	.	.	.	4E-/	po-	.	.	.	.	4cc\	po-	.
.	8c/J)	.	.	.	.	.	.	.	.	.	.	.	.
=39	=39	=39	=39	=39	=39	=39	=39	=39	=39	=39	=39	=39	=39
2.D\	8r	1ryy	.	.	2G/	-kor-	.	4r	.	.	2b-/	-kor-	.
.	(8B-/L	.	.	.	.	.	.	.	.	.	.	.	.
.	8g/	.	.	.	.	.	.	4B-/	proś-	.	.	.	.
.	8B-/J	.	.	.	.	.	.	.	.	.	.	.	.
.	8b-/L	.	.	.	4G/	-ne	.	4c/	-by	.	4b-/	-ne	.
.	8g/	.	.	.	.	.	.	.	.	.	.	.	.
4BB-/	8f/	.	.	.	4F/	pod	.	4d/	pod-	.	4a-/	pod-	.
.	8a-/J)	.	.	.	.	.	.	.	.	.	.	.	.
=40	=40	=40	=40	=40	=40	=40	=40	=40	=40	=40	=40	=40	=40
1E-	(8g/L	1ryy	.	.	(4.E-/	no-	.	2e-/	-no-	.	(4.g/	-no-	.
.	8B-/	.	.	.	.	.	.	.	.	.	.	.	.
.	8e-/	.	.	.	.	.	.	.	.	.	.	.	.
.	8g/J	.	.	.	8F/)	.	.	.	.	.	8a-/)	.	.
.	8b-/L	.	.	.	8A-/L	-sim	.	4e-/	-sim	.	8cc\L	-sim	.
.	8g/	.	.	.	8G/J	.	.	.	.	.	8b-\J	.	.
.	8e-/	.	.	.	8F/L	do	.	4e-/	do	.	8a-/L	do	.
.	8B-/J)	.	.	.	8E-/J	.	.	.	.	.	8g/J	.	.
!!LO:LB:g=original
=41	=41	=41	=41	=41	=41	=41	=41	=41	=41	=41	=41	=41	=41
!	!	!	!	!	!LO:TX:a:t=Tenor solo	!	!	!LO:TX:a:t=Kontr.Alt solo	!	!	!LO:TX:a:t=Sopran solo	!	!
1BB-	8r	1ryy	.	.	2B-\	Cie-	.	(4.d/	Cie-	.	(4.f/	Cie-	.
.	(8B-/L	.	.	.	.	.	.	.	.	.	.	.	.
.	8d/	.	.	.	.	.	.	.	.	.	.	.	.
.	8f/J	.	.	.	.	.	.	16f/LL	.	.	16a-/LL	.	.
.	.	.	.	.	.	.	.	16e-/JJ)	.	.	16g/JJ)	.	.
.	8a-/L	.	.	.	8BB-/	bie	.	8d/	-bie	.	8f/	-bie	.
.	8f/	.	.	.	8r	.	.	8r	.	.	8r	.	.
!	!	!	!	!	!	!	!	!	!	!	!	!	!LO:DY:a
.	8d/	.	.	.	4r	.	.	4r	.	.	4b-\	niech	p
.	8B-/J)	.	.	.	.	.	.	.	.	.	.	.	.
=42	=42	=42	=42	=42	=42	=42	=42	=42	=42	=42	=42	=42	=42
!	!	!	!	!	!	!	!	!	!	!LO:DY:b	!	!	!
!	!	!	!	!	!	!	!LO:DY:b	!	!	!	!	!	!
2E-\	8r	1ryy	.	.	2G/	niech	p	2e-/	niech	p	2.b-\	z Twą	.
.	(8B-/L	.	.	.	.	.	.	.	.	.	.	.	.
.	8e-/	.	.	.	.	.	.	.	.	.	.	.	.
.	8g/J)	.	.	.	.	.	.	.	.	.	.	.	.
2BB-/	8r	.	.	.	4A-/	z Twą	.	4f/	z Twą	.	.	.	.
.	(8B-/L	.	.	.	.	.	.	.	.	.	.	.	.
.	8d/	.	.	.	4F/	po-	.	4d/	po-	.	4b-\	po-	.
.	8f/J)	.	.	.	.	.	.	.	.	.	.	.	.
=43	=43	=43	=43	=43	=43	=43	=43	=43	=43	=43	=43	=43	=43
1EE- 1E-	8r	1ryy	.	.	(4.G\	-mo-	.	(4.e-/	-mo-	.	2b-\	-mo-	.
.	(8B-/L	.	.	.	.	.	.	.	.	.	.	.	.
.	8e-/	.	.	.	.	.	.	.	.	.	.	.	.
.	8f/J	.	.	.	8B-\)	.	.	8f/)	.	.	.	.	.
.	8g/L	.	.	.	4e-\	-cą	.	4g/	-cą	.	4b-\	-cą	.
.	8e-/	.	.	.	.	.	.	.	.	.	.	.	.
.	8B-/	.	.	.	4r	.	.	4r	.	.	4b-\	prze-	.
.	8G/J)	.	.	.	.	.	.	.	.	.	.	.	.
=44	=44	=44	=44	=44	=44	=44	=44	=44	=44	=44	=44	=44	=44
2E-\	8r	1ryy	.	.	4G/	prze-	.	4e-/	prze-	.	2b-\	-pę-	.
.	(8B-/L	.	.	.	.	.	.	.	.	.	.	.	.
.	8e-/	.	.	.	4G/	-pę-	.	4e-/	-pę-	.	.	.	.
.	8g/J)	.	.	.	.	.	.	.	.	.	.	.	.
2BB-/	8r	.	.	.	8B-/L	-dzim	.	8g/L	-dzim	.	4b-\	-dzim	.
.	(8B-/L	.	.	.	8A-/J	.	.	8f/J	.	.	.	.	.
.	8d/	.	.	.	8G/L	dzień	.	8e-/L	dzień	.	4b-\	dzień	.
.	8f/J)	.	.	.	8F/J	.	.	8d/J	.	.	.	.	.
=45	=45	=45	=45	=45	=45	=45	=45	=45	=45	=45	=45	=45	=45
1EE- 1E-	8r	1ryy	.	.	(4.G\	ca-	.	(4.e-/	ca-	.	2b-\	ca-	.
.	(8B-/L	.	.	.	.	.	.	.	.	.	.	.	.
.	8e-/	.	.	.	.	.	.	.	.	.	.	.	.
.	8f/J	.	.	.	8B-\)	.	.	8f/)	.	.	.	.	.
.	8g/L	.	.	.	4e-\	-ły	.	4g/	-ły	.	4b-\	-ły	.
.	8e-/	.	.	.	.	.	.	.	.	.	.	.	.
.	8b-/	.	.	.	4e-\	dla	.	4g/	dla	.	4b-\	dla	.
.	8g/J)	.	.	.	.	.	.	.	.	.	.	.	.
=46	=46	=46	=46	=46	=46	=46	=46	=46	=46	=46	=46	=46	=46
!	!	!	!	!	!	!	!	!	!	!	!	!	!LO:DY:a
2BB-/	8r	1ryy	.	.	(4d\	do-	.	(4f/	do-	.	2.b-\	do-	<
.	(8d/L	.	.	.	.	.	.	.	.	.	.	.	.
.	8f/	.	.	.	8c\L	.	.	8e-/L	.	.	.	.	.
.	8b-/J)	.	.	.	8d\J)	.	.	8f/J)	.	.	.	.	.
!LO:TX:b:t=VS.	!	!	!	!	!	!	!	!	!	!	!	!	!
2E-\	8r	.	.	.	2e-\	-bra	.	2g/	-bra	.	.	.	.
.	(8e-/L	.	.	.	.	.	.	.	.	.	.	.	.
!	!	!	!	!	!	!	!	!	!	!	!	!	!LO:DY:a
.	8g/	.	.	.	.	.	.	.	.	.	8dd\L	-bra	[ >
.	8b-/J)	.	.	.	.	.	.	.	.	.	8cc\J	.	]]
!!LO:PB:g=original
=47	=47	=47	=47	=47	=47	=47	=47	=47	=47	=47	=47	=47	=47
!	!	!LO:TX:a:t=Bas solo	!	!	!	!	!	!LO:TX:a:t=Kontr-Alt solo	!	!	!LO:TX:a:t=Sopran solo.	!	!LO:DY:a
2BB-/	8r	1r	.	.	(4d\	bli-	.	(4f/	bli-	.	2.b-\	bli-	<
.	(8d/L	.	.	.	.	.	.	.	.	.	.	.	.
.	8f/	.	.	.	8c\L	.	.	8e-/L	.	.	.	.	.
.	8b-/J)	.	.	.	8d\J	.	.	8f/J	.	.	.	.	.
4E-\	8r	.	.	.	4e-\)	.	.	4g/)	.	.	.	.	.
.	(8g/L	.	.	.	.	.	.	.	.	.	.	.	.
!	!	!	!	!	!	!	!	!	!	!	!	!	!LO:DY:a
4AA-/	8e-/	.	.	.	8B-\L	-źnich	.	4e-/	-źnich	.	8dd\L	-źnich	[ >
.	8cc/J)	.	.	.	8A-\J	.	.	.	.	.	8cc\J	.	]]
=48	=48	=48	=48	=48	=48	=48	=48	=48	=48	=48	=48	=48	=48
1BB-	(8b-/L	1r	.	.	4G/	i	.	4e-/	i	.	4b-/	i	.
.	8g/	.	.	.	.	.	.	.	.	.	.	.	.
.	8cc/	.	.	.	8c\L	dla	.	4e-/	dla	.	8a-/L	dla	.
.	8b-/J	.	.	.	8B-\J	.	.	.	.	.	8g/J	.	.
.	8an/L	.	.	.	4An/	Two-	.	4e-/	Two-	.	4f/	Two-	.
.	8cc/	.	.	.	.	.	.	.	.	.	.	.	.
.	8d/	.	.	.	4A-X/	-jéj	.	4d/	-jéj	.	4b-\	-jéj	.
.	8b-/J)	.	.	.	.	.	.	.	.	.	.	.	.
=49	=49	=49	=49	=49	=49	=49	=49	=49	=49	=49	=49	=49	=49
2.E-\	(8B-/L	2r	.	.	2F/	chwa-	.	2d/	chwa-	.	2a-/	chwa-	.
.	8d/	.	.	.	.	.	.	.	.	.	.	.	.
.	8f/	.	.	.	.	.	.	.	.	.	.	.	.
.	8a-/J	.	.	.	.	.	.	.	.	.	.	.	.
!	!	!	!	!LO:DY:b	!	!	!	!	!	!	!	!	!
.	8g/L	4r	.	f	4G/	-ły	.	4e-/	-ły	.	4g/	-ły	.
.	8e-/	.	.	.	.	.	.	.	.	.	.	.	.
4AA-/	8c/	8AA-/	i	.	4r	.	.	4r	.	.	4r	.	.
.	8e-/J)	8AA-/	dla	.	.	.	.	.	.	.	.	.	.
=50	=50	=50	=50	=50	=50	=50	=50	=50	=50	=50	=50	=50	=50
*	*clefF4	*	*	*	*	*	*	*	*	*	*	*	*
2BB-/	8r	(4BB-\	Two-	.	1r	.	.	1r	.	.	1r	.	.
.	(8G\L	.	.	.	.	.	.	.	.	.	.	.	.
.	8B-\	8E-\L	.	.	.	.	.	.	.	.	.	.	.
.	8e-\J)	8G\J	.	.	.	.	.	.	.	.	.	.	.
2BB-/	8r	8B-\L	.	.	.	.	.	.	.	.	.	.	.
.	(8F\L	8An\J)	.	.	.	.	.	.	.	.	.	.	.
.	8B-\	8A-X\L	-jéj	.	.	.	.	.	.	.	.	.	.
.	8d\J)	8F\J	.	.	.	.	.	.	.	.	.	.	.
=51	=51	=51	=51	=51	=51	=51	=51	=51	=51	=51	=51	=51	=51
1E-	8r	(4.B-\	chwa-	.	1r	.	.	1r	.	.	1r	.	.
.	(8G\L	.	.	.	.	.	.	.	.	.	.	.	.
.	8B-\	.	.	.	.	.	.	.	.	.	.	.	.
.	8e-\J	8G\)	.	.	.	.	.	.	.	.	.	.	.
.	8g\L	4E-\	-ły	.	.	.	.	.	.	.	.	.	.
.	8e-\	.	.	.	.	.	.	.	.	.	.	.	.
.	8B-\	8E-\	i	.	.	.	.	.	.	.	.	.	.
.	8G\J)	8G\	dla	.	.	.	.	.	.	.	.	.	.
=52	=52	=52	=52	=52	=52	=52	=52	=52	=52	=52	=52	=52	=52
2BBn/	8r	2BBn/	Two-	.	1r	.	.	1r	.	.	1r	.	.
.	(8G\L	.	.	.	.	.	.	.	.	.	.	.	.
.	8d\	.	.	.	.	.	.	.	.	.	.	.	.
.	8f\J)	.	.	.	.	.	.	.	.	.	.	.	.
2C/	8r	8C/	-jéj	.	.	.	.	.	.	.	.	.	.
.	(8G\L	8r	.	.	.	.	.	.	.	.	.	.	.
.	8c\	8C/	i	.	.	.	.	.	.	.	.	.	.
.	8e-\J)	8E-/	dla	.	.	.	.	.	.	.	.	.	.
!!LO:LB:g=original
=53	=53	=53	=53	=53	=53	=53	=53	=53	=53	=53	=53	=53	=53
!	!	!LO:TX:a:t=Bas solo	!	!	!	!	!	!	!	!	!	!	!
2GG/	8r	2GG/	Two-	.	1ryy	.	.	1ryy	.	.	1ryy	.	.
.	(8E-\L	.	.	.	.	.	.	.	.	.	.	.	.
.	8B-\	.	.	.	.	.	.	.	.	.	.	.	.
.	8d-X\J)	.	.	.	.	.	.	.	.	.	.	.	.
2AA-/	8r	8AA-/	-jéj	.	.	.	.	.	.	.	.	.	.
.	(8E-\L	8r	.	.	.	.	.	.	.	.	.	.	.
.	8A-\	8AA-/	Two-	.	.	.	.	.	.	.	.	.	.
.	8c\J)	8AA-/	-jéj	.	.	.	.	.	.	.	.	.	.
=54	=54	=54	=54	=54	=54	=54	=54	=54	=54	=54	=54	=54	=54
1AA-	8r	2c\	chwa-	.	1ryy	.	.	1ryy	.	.	1ryy	.	.
.	(8E-\L	.	.	.	.	.	.	.	.	.	.	.	.
.	8A-\	.	.	.	.	.	.	.	.	.	.	.	.
.	8c\J	.	.	.	.	.	.	.	.	.	.	.	.
.	8e-\L	8A-\	-ły	.	.	.	.	.	.	.	.	.	.
.	8c\	8r	.	.	.	.	.	.	.	.	.	.	.
.	8A-\	8E-\	Two-	.	.	.	.	.	.	.	.	.	.
.	8E-\J)	8F\	-jéj	.	.	.	.	.	.	.	.	.	.
=55	=55	=55	=55	=55	=55	=55	=55	=55	=55	=55	=55	=55	=55
2GG/	8r	2G\	chwa-	.	1ryy	.	.	1ryy	.	.	1ryy	.	.
.	(8E-\L	.	.	.	.	.	.	.	.	.	.	.	.
.	8G\	.	.	.	.	.	.	.	.	.	.	.	.
.	8c\J)	.	.	.	.	.	.	.	.	.	.	.	.
2GG/	8r	4GG/	-ły	.	.	.	.	.	.	.	.	.	.
.	(8D\L	.	.	.	.	.	.	.	.	.	.	.	.
.	8G\	4r	.	.	.	.	.	.	.	.	.	.	.
.	8Bn\J)	.	.	.	.	.	.	.	.	.	.	.	.
=56	=56	=56	=56	=56	=56	=56	=56	=56	=56	=56	=56	=56	=56
!	!	!LO:TX:a:t=con pietà	!	!	!	!	!	!	!	!	!	!	!
!	!	!	!	!LO:DY:b	!	!	!	!	!	!	!	!	!
2C/	8r	2C/	Kie-	p	1ryy	.	.	1ryy	.	.	1ryy	.	.
.	(8E-\L	.	.	.	.	.	.	.	.	.	.	.	.
.	8G\	.	.	.	.	.	.	.	.	.	.	.	.
.	8c\J)	.	.	.	.	.	.	.	.	.	.	.	.
2GG/	8r	4D/	-ruj	.	.	.	.	.	.	.	.	.	.
.	(8F\L	.	.	.	.	.	.	.	.	.	.	.	.
.	8G\	4BBn/	krok	.	.	.	.	.	.	.	.	.	.
.	8d\J)	.	.	.	.	.	.	.	.	.	.	.	.
=57	=57	=57	=57	=57	=57	=57	=57	=57	=57	=57	=57	=57	=57
1C	8r	(4.C/	błę-	.	1ryy	.	.	1ryy	.	.	1ryy	.	.
.	(8E-\L	.	.	.	.	.	.	.	.	.	.	.	.
.	8G\	.	.	.	.	.	.	.	.	.	.	.	.
.	8c\J	8D/)	.	.	.	.	.	.	.	.	.	.	.
.	8e-\L	8E-/	-dny	.	.	.	.	.	.	.	.	.	.
.	8c\	8r	.	.	.	.	.	.	.	.	.	.	.
.	8G\	4E-\	od-	.	.	.	.	.	.	.	.	.	.
.	8E-\J)	.	.	.	.	.	.	.	.	.	.	.	.
!!LO:LB:g=original
=58	=58	=58	=58	=58	=58	=58	=58	=58	=58	=58	=58	=58	=58
!	!	!LO:TX:a:t=Bas solo	!	!	!	!	!	!	!	!	!	!	!
!	!	!	!	!LO:HP:b	!	!	!	!	!	!	!	!	!
1CC	8r	(2A-\	-da-	>	1ryy	.	.	1ryy	.	.	1ryy	.	.
.	(8A-\L	.	.	.	.	.	.	.	.	.	.	.	.
.	8c\	.	.	.	.	.	.	.	.	.	.	.	.
.	8f\J)	.	.	.	.	.	.	.	.	.	.	.	.
.	(8G\L	4G\	-laj	]	.	.	.	.	.	.	.	.	.
.	8e-\	.	.	.	.	.	.	.	.	.	.	.	.
.	8F#X\	4F#X\)	cier-	.	.	.	.	.	.	.	.	.	.
.	8d\J)	.	.	.	.	.	.	.	.	.	.	.	.
=59	=59	=59	=59	=59	=59	=59	=59	=59	=59	=59	=59	=59	=59
1C	8r	(4.G\	-pie-	.	1ryy	.	.	1ryy	.	.	1ryy	.	.
.	(8E-\L	.	.	.	.	.	.	.	.	.	.	.	.
.	8G\	.	.	.	.	.	.	.	.	.	.	.	.
.	8c\J	8E-\)	.	.	.	.	.	.	.	.	.	.	.
.	8e-\L	4C/	-nia	.	.	.	.	.	.	.	.	.	.
.	8c\	.	.	.	.	.	.	.	.	.	.	.	.
.	8G\	4r	.	.	.	.	.	.	.	.	.	.	.
.	8E-\J)	.	.	.	.	.	.	.	.	.	.	.	.
=60	=60	=60	=60	=60	=60	=60	=60	=60	=60	=60	=60	=60	=60
*	*rep	*	*	*	*	*	*	*	*	*	*	*	*
!	!	!	!	!LO:DY:b	!	!	!	!	!	!	!	!	!
1C	8r	2c\	O-	f	1ryy	.	.	1ryy	.	.	1ryy	.	.
.	(8E-\L	.	.	.	.	.	.	.	.	.	.	.	.
.	8G\	.	.	.	.	.	.	.	.	.	.	.	.
.	8c\J	.	.	.	.	.	.	.	.	.	.	.	.
.	8e-\L	4C/	-chroń	.	.	.	.	.	.	.	.	.	.
.	8c\	.	.	.	.	.	.	.	.	.	.	.	.
.	8G\	4C/	złość	.	.	.	.	.	.	.	.	.	.
.	8E-\J)	.	.	.	.	.	.	.	.	.	.	.	.
*	*Xrep	*	*	*	*	*	*	*	*	*	*	*	*
=61	=61	=61	=61	=61	=61	=61	=61	=61	=61	=61	=61	=61	=61
*	*rep	*	*	*	*	*	*	*	*	*	*	*	*
1BB-	8r	2.E-\	na-	.	1ryy	.	.	1ryy	.	.	1ryy	.	.
.	(8E-\L	.	.	.	.	.	.	.	.	.	.	.	.
.	8G\	.	.	.	.	.	.	.	.	.	.	.	.
.	8c\J	.	.	.	.	.	.	.	.	.	.	.	.
.	8e-\L	.	.	.	.	.	.	.	.	.	.	.	.
.	8c\	.	.	.	.	.	.	.	.	.	.	.	.
.	8G\	4D\	-szą	.	.	.	.	.	.	.	.	.	.
.	8E-\J)	.	.	.	.	.	.	.	.	.	.	.	.
*	*Xrep	*	*	*	*	*	*	*	*	*	*	*	*
=62	=62	=62	=62	=62	=62	=62	=62	=62	=62	=62	=62	=62	=62
1AA-	8r	4.C\	tar-	.	1ryy	.	.	1ryy	.	.	1ryy	.	.
.	(8E-\L	.	.	.	.	.	.	.	.	.	.	.	.
.	8F#X\	.	.	.	.	.	.	.	.	.	.	.	.
.	8c\J	8D\	-czą	.	.	.	.	.	.	.	.	.	.
.	8e-\L	8F\L	za-	.	.	.	.	.	.	.	.	.	.
.	8c\	8E-\J	.	.	.	.	.	.	.	.	.	.	.
.	8F#\	8D/L	-po-	.	.	.	.	.	.	.	.	.	.
.	8E-\J)	8C/J	.	.	.	.	.	.	.	.	.	.	.
!!LO:PB:g=original
=63	=63	=63	=63	=63	=63	=63	=63	=63	=63	=63	=63	=63	=63
!	!	!LO:TX:t=Bas solo	!	!	!LO:TX:a:t=Tenor solo	!	!	!LO:TX:a:t=Kontr-Alt solo.	!	!	!LO:TX:a:t=Sopran solo.	!	!
1GG	8r	2G\	-mnie-	.	1r	.	.	1r	.	.	1r	.	.
.	(8E-\L	.	.	.	.	.	.	.	.	.	.	.	.
.	8G\	.	.	.	.	.	.	.	.	.	.	.	.
.	8c\J	.	.	.	.	.	.	.	.	.	.	.	.
.	8Bn\L	4GG/	-nia	.	.	.	.	.	.	.	.	.	.
.	8G\	.	.	.	.	.	.	.	.	.	.	.	.
.	8F#X\	4r	.	.	.	.	.	.	.	.	.	.	.
.	8Fn\J)	.	.	.	.	.	.	.	.	.	.	.	.
=64||	=64||	=64||	=64||	=64||	=64||	=64||	=64||	=64||	=64||	=64||	=64||	=64||	=64||
*clefF4	*	*	*	*	*	*	*	*	*	*	*	*	*
*kcancel	*	*	*	*	*	*	*	*	*	*	*	*	*
*k[]	*k[]	*k[]	*	*	*k[]	*	*	*k[]	*	*	*k[]	*	*
!	!	!	!	!LO:DY:b	!	!	!	!LO:TX:a:t=dolce	!	!LO:DY:b	!LO:TX:a:t=dolce	!	!LO:DY:b
!LO:TX:t=P:problem:powtórzenie kluczy zapisane przed znakami	!LO:TX:t=P:problem:powtórzenie kluczy zapisane przed znakami	!LO:TX:t=P:problem:powtórzenie kluczy zapisane przed znakami	!	!	!	!	!	!LO:TX:t=P:problem:powtórzenie kluczy zapisane przed znakami	!	!	!LO:TX:t=P:problem:powtórzenie kluczy zapisane przed znakami	!	!
2C/	(8E\L	2C/	i	p	1r	.	.	2e/	I	p	2cc\	I	p
.	8G\	.	.	.	.	.	.	.	.	.	.	.	.
.	8c\	.	.	.	.	.	.	.	.	.	.	.	.
.	8e\J)	.	.	.	.	.	.	.	.	.	.	.	.
2GG/	(8F\L	4GG/	daj	.	.	.	.	4f/	daj	.	4dd\	daj	.
.	8G\	.	.	.	.	.	.	.	.	.	.	.	.
.	8B\	4GG/	a-	.	.	.	.	4d/	a-	.	4b\	a-	.
.	8d\J)	.	.	.	.	.	.	.	.	.	.	.	.
=65	=65	=65	=65	=65	=65	=65	=65	=65	=65	=65	=65	=65	=65
!	!	!	!	!	!	!	!LO:DY:b	!	!	!	!	!	!
1C	(8E\L	2C/	-byś-	.	4r	.	p	(4.e/	-by-	.	(4.cc\	-by-	.
.	8G\	.	.	.	.	.	.	.	.	.	.	.	.
.	8c\	.	.	.	4G\	i	.	.	.	.	.	.	.
.	8G\J	.	.	.	.	.	.	8f/)	.	.	8dd\)	.	.
.	8e\L	8C/	-my	.	4c\	daj	.	8g/	-śmy	.	8ee\	-śmy	.
.	8c\	8r	.	.	.	.	.	8r	.	.	8r	.	.
!	!	!	!	!	!	!	!	!	!	!LO:DY:b	!	!	!LO:DY:b
!	!	!	!	!LO:DY:b	!	!	!	!	!	!	!	!	!
.	8G\	(4C/	po	f	4B-X\	a-	.	(4g/	po	f	(4ee\	po	f
.	8E\J)	.	.	.	.	.	.	.	.	.	.	.	.
=66	=66	=66	=66	=66	=66	=66	=66	=66	=66	=66	=66	=66	=66
*	*clefG2	*	*	*	*	*	*	*	*	*	*	*	*
!	!LO:TX:t=P:problem:mixed beam	!	!	!	!	!	!	!	!	!	!	!	!
!	!	!	!	!	!	!	!LO:DY:b	!	!	!	!	!	!
2FF\	(8F</L	4FF/)	.	.	(8A\L	-by-	f	4cc/)	.	.	4aa\)	.	.
.	8A</	.	.	.	8F\	.	.	.	.	.	.	.	.
.	8c</	4FF/	szczę-	.	8G\	.	.	4cc\	szczę-	.	4aa\	szczę-	.
.	8a\J	.	.	.	8A\J	.	.	.	.	.	.	.	.
4GG\	8B/L	4GG/	-śli-	.	8Bn\L	-śmy	.	4b\	-śli-	.	4gg\	-śli-	.
.	8g/	.	.	.	8c\J)	.	.	.	.	.	.	.	.
8AA\L	8A/	8AA/L	-wym	.	8d\L	po	.	4a/	-wym	.	4ff#X\	-wym	.
8C\J	8f#X/J)	8C/J	.	.	8d#X\J	.	.	.	.	.	.	.	.
=67	=67	=67	=67	=67	=67	=67	=67	=67	=67	=67	=67	=67	=67
1CC	(8G/L	(4C/	zgo-	.	2e\	zgo-	.	(8g\L	zgo-	.	(4.gg\	zgo-	.
.	8c/	.	.	.	.	.	.	8cc\	.	.	.	.	.
.	8e/	8c\L	.	.	.	.	.	8ee\	.	.	.	.	.
.	8g/J	8B\J	.	.	.	.	.	8dd\J	.	.	8ee\)	.	.
.	8e/L	8A\L	.	.	4e\	-nie	.	8cc\L	.	.	4cc\	-nie	.
.	8g/	8G\J)	.	.	.	.	.	8b\J)	.	.	.	.	.
.	8c/	8c\L	-nie	.	4r	.	.	8a/L	-nie	.	4r	.	.
.	8e/J)	8B\J	.	.	.	.	.	8g/J	.	.	.	.	.
=68	=68	=68	=68	=68	=68	=68	=68	=68	=68	=68	=68	=68	=68
1AA	8r	2A\	i	.	1r	.	.	2f/	i	.	2cc\	i	.
.	(8A/L	.	.	.	.	.	.	.	.	.	.	.	.
.	8c/	.	.	.	.	.	.	.	.	.	.	.	.
.	8f/J	.	.	.	.	.	.	.	.	.	.	.	.
.	8a/L	4AA/	daj	.	.	.	.	4f/	daj	.	4cc\	daj	.
.	8f/	.	.	.	.	.	.	.	.	.	.	.	.
.	8c/	4AA/	a-	.	.	.	.	4a/	a-	.	4cc\	a-	.
.	8A/J)	.	.	.	.	.	.	.	.	.	.	.	.
=69	=69	=69	=69	=69	=69	=69	=69	=69	=69	=69	=69	=69	=69
!	!	!	!	!	!	!	!	!	!	!LO:DY:a	!	!	!LO:DY:a
2BB/	8r	2BB/	-by-	.	4r	.	.	2.g/	-by-	>	2.ee\	-by-	>
.	(8G/L	.	.	.	.	.	.	.	.	.	.	.	.
.	8e/	.	.	.	4G/	i	.	.	.	.	.	.	.
.	8g/J	.	.	.	.	.	.	.	.	.	.	.	.
2GG/	8e/L	2GG/	-śmy	.	4A/	daj	.	.	.	.	.	.	.
.	8g/	.	.	.	.	.	.	.	.	.	.	.	.
.	8d/	.	.	.	4B/	a-	.	4f/	-śmy	]]	4dd\	-śmy	]]
.	8f/J)	.	.	.	.	.	.	.	.	.	.	.	.
!!LO:LB:g=original
=70	=70	=70	=70	=70	=70	=70	=70	=70	=70	=70	=70	=70	=70
!	!	!	!	!	!	!	!	!	!	!	!LO:TX:a:t=Sopran solo	!	!
[2C\	(8c/L	4C/	po	.	2c\	-by-	.	4.e/	po	.	4.cc\	po	.
.	8e/	.	.	.	.	.	.	.	.	.	.	.	.
.	8g/	4C/	szczę-	.	.	.	.	.	.	.	.	.	.
.	8f/J	.	.	.	.	.	.	8f/	szczę-	.	8dd\	szczę-	.
8C\L]	8f/L 8a	8C\L	-śli-	.	4c\	-śmy	.	8a/L	-śli-	.	8ff\L	-śli-	.
8E\	8e/ 8g	8E\J	.	.	.	.	.	8g/J	.	.	8ee\J	.	.
8F\	8d/ 8f	8F\L	-wym	.	4c\	po	.	8f/L	-wym	.	8dd\L	-wym	.
8F#X\J	8c/J) 8e	8F#X\J	.	.	.	.	.	8e/J	.	.	8cc\J	.	.
=71	=71	=71	=71	=71	=71	=71	=71	=71	=71	=71	=71	=71	=71
2G\	(8B/L 8d	2G\	zgo-	.	(4.B\	zgo-	.	(4.d/	zgo-	.	2gg\	zgo-	.
.	8g/	.	.	.	.	.	.	.	.	.	.	.	.
.	8b/	.	.	.	.	.	.	.	.	.	.	.	.
.	8g/J	.	.	.	16d\LL	.	.	16f/LL	.	.	.	.	.
.	.	.	.	.	16c\JJ)	.	.	16e/JJ)	.	.	.	.	.
2GG/	8d/L	4GG/	-nie	.	4B\	-nie	.	4d/	-nie	.	8g/	-nie	.
.	8g/	.	.	.	.	.	.	.	.	.	8r	.	.
!	!	!LO:TX:t=P:problem:niepewna interpretacja łuku	!	!LO:DY:a	!	!	!	!	!	!	!	!	!LO:DY:a
.	8B/	(4GG/	Dzie-	p	4r	.	.	4r	.	.	4g/	i	f
.	8d/J)	.	.	.	.	.	.	.	.	.	.	.	.
=72	=72	=72	=72	=72	=72	=72	=72	=72	=72	=72	=72	=72	=72
!	!	!	!	!	!	!	!	!	!	!LO:DY:b	!	!	!
!	!	!	!	!	!	!	!LO:DY:b	!	!	!	!	!	!
2CC/ 2C	8r	2E\)	.	.	2c\	i	p	4r	.	p	[1gg	daj	.
.	(8G/L	.	.	.	.	.	.	.	.	.	.	.	.
.	8c/	.	.	.	.	.	.	8c/L	dzie-	.	.	.	.
.	8e/J)	.	.	.	.	.	.	8e/J	.	.	.	.	.
2GG/	8r	4F\	-ci	.	4d\	daj	.	4g/	-ci	.	.	.	.
.	(8G/L	.	.	.	.	.	.	.	.	.	.	.	.
.	8d/	4D\	przy	.	4B\	a-	.	8a/L	przy	.	.	.	.
.	8f/J)	.	.	.	.	.	.	8b/J	.	.	.	.	.
=73	=73	=73	=73	=73	=73	=73	=73	=73	=73	=73	=73	=73	=73
1CC 1C	8r	(4.E\	Oj-	.	(4.c\	-by-	.	(4.cc\	Oj-	.	2.gg\]	.	.
.	(8G/L	.	.	.	.	.	.	.	.	.	.	.	.
.	8c/	.	.	.	.	.	.	.	.	.	.	.	.
.	8e/J	8G\)	.	.	8d\)	.	.	8g\)	.	.	.	.	.
.	8g/L	4c\	-ca	.	8e\	-śmy	.	4e/	-ca	.	.	.	.
.	8e/	.	.	.	8r	.	.	.	.	.	.	.	.
!	!	!	!	!	!	!	!LO:DY:a	!	!	!	!	!	!
.	8c/	4r	.	.	4G/	i	f	4r	.	.	4gg\	by	.
.	8G/J)	.	.	.	.	.	.	.	.	.	.	.	.
=74	=74	=74	=74	=74	=74	=74	=74	=74	=74	=74	=74	=74	=74
2CC/ 2C	8r	4r	.	.	[1g	daj	.	4cc\	po-	.	4ee\	po-	.
.	(8G/L	.	.	.	.	.	.	.	.	.	.	.	.
.	8c/	8C/	po-	.	.	.	.	4cc\	-zo-	.	4ee\	-zo-	.
.	8e/J)	8E/	-zo-	.	.	.	.	.	.	.	.	.	.
2GG/	8r	4G\	-sta-	.	.	.	.	8ee\L	-sta-	.	8gg\L	-sta-	.
.	(8G/L	.	.	.	.	.	.	8dd\J	.	.	8ff\J	.	.
.	8d/	8A\L	-li	.	.	.	.	8cc\L	-li	.	8ee\	-li	.
.	8f/J)	8B\J	.	.	.	.	.	8g\J	.	.	8dd\	przy	.
=75	=75	=75	=75	=75	=75	=75	=75	=75	=75	=75	=75	=75	=75
2.C/	8r	2c\	Tro-	.	1g_	.	.	(4.cc\	Tro-	.	(4.ee\	Tro-	.
.	(8G/L	.	.	.	.	.	.	.	.	.	.	.	.
.	8c/	.	.	.	.	.	.	.	.	.	.	.	.
.	8e/J	.	.	.	.	.	.	8g\)	.	.	8dd\)	.	.
.	8g/L	4C\	.	.	.	.	.	4e/	-nie	.	4cc\	-nie	.
.	8e/	.	.	.	.	.	.	.	.	.	.	.	.
4BB-X/	8c/	4BB-X\	-nie	.	.	.	.	4r	.	.	4r	.	.
.	8G/J)	.	.	.	.	.	.	.	.	.	.	.	.
=76	=76	=76	=76	=76	=76	=76	=76	=76	=76	=76	=76	=76	=76
!	!	!	!	!LO:DY:a	!	!	!	!	!	!	!	!	!
2.AA/	8r	4AA/	Dzie-	f	4g\]	.	.	4r	.	.	4r	.	.
.	(8A/L	.	.	.	.	.	.	.	.	.	.	.	.
!	!	!	!	!	!	!	!	!	!	!	!	!	!LO:DY:b
.	8c#X/	8A\	-ci	.	(4g\	by	.	4e/	dzie-	f	4cc#X\	Dzie-	f
.	8e/J	8B-X\	przy	.	.	.	.	.	.	.	.	.	.
.	8d/L	4A\	Oj-	.	4f\)	.	.	4f/	-ci	.	4dd\	-ci	.
.	8f/	.	.	.	.	.	.	.	.	.	.	.	.
!LO:TX:b:t=VS.	!	!	!	!	!	!	!	!	!	!	!	!	!
4GG/	8e/	4G\	-ca	.	4e\	przy	.	4g/	przy	.	4ee\	przy	.
.	8g/J)	.	.	.	.	.	.	.	.	.	.	.	.
!!LO:PB:g=original
=77	=77	=77	=77	=77	=77	=77	=77	=77	=77	=77	=77	=77	=77
!	!	!	!	!	!	!	!	!	!	!	!LO:TX:a:t=Sopran solo	!	!
1FF 1F	(8f/L	2.F\	po-	.	(8c#X\L	Oj-	.	(8b-X\L	Oj-	.	(8gg\L	Oj-	.
.	8a/	.	.	.	8d\	.	.	8a\	.	.	8ff\	.	.
.	8g/	.	.	.	8g\	.	.	8b-\	.	.	8ee\	.	.
.	8a/J	.	.	.	8f\J	.	.	8a\J	.	.	8ff\J	.	.
.	8b-X/L	.	.	.	8e\L	.	.	8g/L	.	.	8cc#X\L	.	.
.	8a/	.	.	.	8f\J)	.	.	8f/J)	.	.	8dd\J)	.	.
.	8f/	4F\	-zo-	.	8A\L	-ca	.	8a/L	-ca	.	8ff\L	ca	.
.	8a/J)	.	.	.	8d\J	.	.	8f/J	.	.	8dd\J	.	.
=78	=78	=78	=78	=78	=78	=78	=78	=78	=78	=78	=78	=78	=78
2GG\ 2G	(8g/L	8G\L	-sta-	.	8e\L	po-	.	8e/L	po-	.	8ccn\L	po-	.
.	8e/	8E\J	.	.	8G\J	.	.	8cc/J	.	.	8gg\J	.	.
.	8cc/	8G\L	-li	.	8cn\L	-zo-	.	8g/L	-zo-	.	8ee\L	-zo-	.
.	8g/J	8c\J	.	.	8e\J	.	.	8e/J	.	.	8cc\J	.	.
2GG/	8f/L	4d\	Tro-	.	4f\	-sta-	.	4d/	-sta-	.	8b\L	-sta-	.
.	8d/	.	.	.	.	.	.	.	.	.	8ff\J	.	.
.	8Bn/	4G\	-nie	.	4f\	-li	.	4g/	-li	.	8dd\L	-li	.
.	8G/J)	.	.	.	.	.	.	.	.	.	8b\J	.	.
=79	=79	=79	=79	=79	=79	=79	=79	=79	=79	=79	=79	=79	=79
4C/	4c/ 4e	8c\L	A-	.	4e\	Tro-	.	4g/	Tro-	.	4cc\	Tro-	.
.	.	8C\	.	.	.	.	.	.	.	.	.	.	.
4r	4r	8BB\	.	.	4e\	-nie	.	4g/	-nie	.	4cc\	-nie	.
.	.	8C\J	.	.	.	.	.	.	.	.	.	.	.
2r	2r	8E\L	.	.	2r	.	.	2r	.	.	2r	.	.
.	.	8C\	.	.	.	.	.	.	.	.	.	.	.
.	.	8A\	.	.	.	.	.	.	.	.	.	.	.
.	.	8G\J	.	.	.	.	.	.	.	.	.	.	.
=80	=80	=80	=80	=80	=80	=80	=80	=80	=80	=80	=80	=80	=80
1GG 1G	4r	1G	.	.	4r	.	.	4r	.	.	4r	.	.
.	(8c/L	.	.	.	4c\	A-	.	8c/L	A-	.	4ee\	A-	.
.	8e/J	.	.	.	.	.	.	8e/J	.	.	.	.	.
.	8d/L	.	.	.	4d\	.	.	2g/	-men	.	4ff\	.	.
.	8f/	.	.	.	.	.	.	.	.	.	.	.	.
.	8B/	.	.	.	4B\	.	.	.	.	.	4dd\	.	.
.	8d/J)	.	.	.	.	.	.	.	.	.	.	.	.
=81	=81	=81	=81	=81	=81	=81	=81	=81	=81	=81	=81	=81	=81
4C/	4c/ 4e	4C/	-men	.	2e\	.	.	8cc/L	A-	.	2gg\	.	.
.	.	.	.	.	.	.	.	8c/	.	.	.	.	.
4r	4r	4r	.	.	.	.	.	8B/	.	.	.	.	.
.	.	.	.	.	.	.	.	8c/J	.	.	.	.	.
!	!	!	!	!	!LO:TX:t=P:problem:wysokość poprawiana	!	!	!	!	!	!LO:TX:t=P:problem:wysokość poprawiana	!	!
2r	2r	2r	.	.	4c\	-men	.	8e/L	.	.	4ee\	-men	.
.	.	.	.	.	.	.	.	8c/	.	.	.	.	.
.	.	.	.	.	4r	.	.	8a/	.	.	4r	.	.
.	.	.	.	.	.	.	.	8g/J	.	.	.	.	.
=82	=82	=82	=82	=82	=82	=82	=82	=82	=82	=82	=82	=82	=82
4r	4r	4r	.	.	4r	.	.	1g	.	.	4r	.	.
8C\L	4c/ 4e	8C\L	A-	.	4c\	A-	.	.	.	.	4ee\	A-	.
8E\J	.	8E\J	.	.	.	.	.	.	.	.	.	.	.
4G\	(8e/L 8g	4G\	.	.	8e\L	.	.	.	.	.	8gg\L	.	.
.	8d/ 8f	.	.	.	8d\	.	.	.	.	.	8ff\J	.	.
4GG/	8c/ 8e	4GG/	.	.	8c\	.	.	.	.	.	8ee\L	.	.
.	8B/J) 8d	.	.	.	8B\J	.	.	.	.	.	8dd\J	.	.
=83	=83	=83	=83	=83	=83	=83	=83	=83	=83	=83	=83	=83	=83
4C/	4c/ 4e	4C/	-men	.	4c\	-men	.	4e/	-men	.	4cc\	-men	.
4r	(8gg\L	4r	.	.	4r	.	.	8G/L	A-	.	8e/L	A-	.
.	8ee\J	.	.	.	.	.	.	8c/J	.	.	8g/J	.	.
2r	8cc\L	2r	.	.	2r	.	.	8e/L	.	.	8cc\L	.	.
.	8ee\	.	.	.	.	.	.	8c/	.	.	8g\	.	.
.	8cc\	.	.	.	.	.	.	8e/	.	.	8cc\	.	.
.	8g\J)	.	.	.	.	.	.	8g/J	.	.	8ee\J	.	.
!!LO:LB:g=original
=84	=84	=84	=84	=84	=84	=84	=84	=84	=84	=84	=84	=84	=84
!	!	!	!	!	!	!	!	!	!	!	!LO:TX:a:t=Sopran solo.	!	!
4r	1e	4r	.	.	4r	.	.	1cc	.	.	1gg	.	.
(8CC/L	.	8E\L	A-	.	8C/L	A-	.	.	.	.	.	.	.
8EE/J	.	8C\J	.	.	8E/J	.	.	.	.	.	.	.	.
8GG/L	.	8GG\L	.	.	8G/L	.	.	.	.	.	.	.	.
8CC/	.	8E\	.	.	8E/	.	.	.	.	.	.	.	.
8EE/	.	8C\	.	.	8G/	.	.	.	.	.	.	.	.
8GG/J)	.	8E\J	.	.	8c/J	.	.	.	.	.	.	.	.
=85	=85	=85	=85	=85	=85	=85	=85	=85	=85	=85	=85	=85	=85
[1CC [1EE [1GG [1C	1g 1cc 1ee 1gg	1G	.	.	1e	.	.	1cc	.	.	1gg	.	.
=86	=86	=86	=86	=86	=86	=86	=86	=86	=86	=86	=86	=86	=86
*^	*	*	*	*	*	*	*	*	*	*	*	*	*
2EE/] 2GG] 2C]	2CC\]	2g\ 2cc 2ee	2C/	-men	.	2c\	-men	.	2g/	-men	.	2ee\	-men	.
2r	2ryy	2r	2r	.	.	2r	.	.	2r	.	.	2r	.	.
*v	*v	*	*	*	*	*	*	*	*	*	*	*	*	*
=87	=87	=87	=87	=87	=87	=87	=87	=87	=87	=87	=87	=87	=87
*	*^	*	*	*	*	*	*	*	*	*	*	*	*
!	!	!	!	!	!	!	!	!	!	!	!	!	!	!LO:DY:b
!	!	!	!	!	!	!	!	!	!	!	!LO:DY:b	!	!	!
!	!	!	!	!	!	!	!	!LO:DY:b	!	!	!	!	!	!
!	!	!	!	!	!LO:DY:b	!	!	!	!	!	!	!	!	!
(4C\ 4G	[1cc	4e\	(4C\	A-	p	(4G/	A-	p	(4e/	A-	p	1cc	A-	p
4F\ 4A	.	4f\	4F\	.	.	4A/	.	.	4f/	.	.	.	.	.
4C\ 4G	.	4e\	4C\	.	.	4G/	.	.	4e/	.	.	.	.	.
4F\) 4A	.	4f\	4F\)	.	.	4A/)	.	.	4f/)	.	.	.	.	.
*	*v	*v	*	*	*	*	*	*	*	*	*	*	*	*
=88	=88	=88	=88	=88	=88	=88	=88	=88	=88	=88	=88	=88	=88
2C\ 2G	2e\ 2cc]	2C/	-men	.	2G/	-men	.	2e/	-men	.	2cc\	-men	.
2r	2r	2r	.	.	2r	.	.	2r	.	.	2r	.	.
!!LO:TX:b:t=Fine
==	==	==	==	==	==	==	==	==	==	==	==	==	==
*-	*-	*-	*-	*-	*-	*-	*-	*-	*-	*-	*-	*-	*-
!!!system-decoration: ((g1),<g2>)
!!!ENC: Kamil Watkowski
!!!END: 2021-06-14
!!!RDF**kern: > = above
!!!RDF**kern: < = below
!!!ENC: Marcin Jachim
!!!END: 2021-06-10
